assets/expensify/original.svg

<svg viewBox="0 0 24 24" xmlns="http://www.w3.org/2000/svg" fill="#0185FF"><path d="m8.16 17.52h7.68v-2.28h-4.872v-2.136h4.152v-2.328h-4.152v-2.04h4.872v-2.256h-7.68zm13.44-5.52a9.608 9.608 0 0 1 -2.16 6.072l1.704 1.704a11.958 11.958 0 0 0 2.856-7.776c0-2.928-1.056-5.616-2.784-7.68l-1.704 1.704a9.61 9.61 0 0 1 2.088 5.976zm-3.528 7.44a9.608 9.608 0 0 1 -12.048.072l-1.704 1.704a11.913 11.913 0 0 0 7.68 2.784c2.976 0 5.688-1.08 7.776-2.856zm-13.44-1.272a9.613 9.613 0 0 1 -2.232-6.168c0-5.304 4.296-9.6 9.6-9.6 2.352 0 4.488.84 6.168 2.232l1.704-1.704a12.02 12.02 0 0 0 -7.872-2.928c-6.624 0-12 5.376-12 12 0 3 1.104 5.76 2.928 7.872z"/></svg>

<svg xmlns="http://www.w3.org/2000/svg" fill="#0185ff" viewBox="0 0 24 24"><path d="M8.16 17.52h7.68v-2.28h-4.872v-2.136h4.152v-2.328h-4.152v-2.04h4.872V6.48H8.16zM21.6 12a9.6 9.6 0 0 1-2.16 6.072l1.704 1.704A11.96 11.96 0 0 0 24 12c0-2.928-1.056-5.616-2.784-7.68l-1.704 1.704A9.6 9.6 0 0 1 21.6 12m-3.528 7.44a9.61 9.61 0 0 1-12.048.072L4.32 21.216A11.9 11.9 0 0 0 12 24c2.976 0 5.688-1.08 7.776-2.856zm-13.44-1.272A9.6 9.6 0 0 1 2.4 12c0-5.304 4.296-9.6 9.6-9.6 2.352 0 4.488.84 6.168 2.232l1.704-1.704A12.02 12.02 0 0 0 12 0C5.376 0 0 5.376 0 12c0 3 1.104 5.76 2.928 7.872z"/></svg>
